!!!!SEGMENT: s-uu--vok-mus-i-hs-3-7_forster-kaspar--sonata.krn
!!!cenid: 16xx:1708
!!!COM: Förster, Kaspar
!!!COM-rismID: pe30006147
!!!CDT: ~1616-1673/02/02
!!!CNT: German
!!!OTL: Sonata
!!!PDT:
!!!AGN:
!!!YEC: Copyright 2022 Narodowy Instytut Fryderyka Chopina (https://polishscores.org)
!!!YEM: License CC-BY-4.0 (https://creativecommons.org/licenses/by/4.0)
!!!SMS-siglum: S-Uu
!!!SMS-shelfmark: Vok. mus. i hs. 3:7
!!!SMS-shelfwork: W
!!!SMS-variant: [bc] [ex. 2]: S-Uu Vok. mus. i hs. 3:7
!!!SMS-altvar: [bc] [ex. 1]: S-Uu Vok. mus. i hs. 3:7
!!!NIFC-rismSourceID: 190008744
!!!NIFC-rismChildID: 190008744
!!!NIFC-islandoraID: none
!!!URL-pdf-islandora:
!!!URL-scan: https://www2.musik.uu.se/duben/presentationSource1.php?Select_Dnr=2115 @EN{Scan on Academica} @PL{Skany w zewnętrznej bibliotece cyfrowej}
!!!IIIF:
!!!ONB-nifc: UWAGA: poszczególne partie dostępne po kliknięciu w „browse part”. Informacje nt stron tytułowych w opisie na stronie lub na RISM.
!!!AIN: 1 organ 1 violb 2 violn
!!!key: B-
**kern	**fba	**kern	**kern	**kern
*part4	*	*part3	*part2	*part1
*staff4	*	*staff3	*staff2	*staff1
*I"[bc]	*	*I"Viola di Gamba	*I"Violino 2do	*I"Violino 1mo
*I'bc	*	*I'vla da gamba	*I'vl 2	*I'vl 1
*Iorgan	*	*Iviolb	*Ivioln	*Ivioln
*ICklav	*	*ICstr	*ICstr	*ICstr
*IGcont	*	*	*	*
*clefF4	*	*clefF4	*clefG2	*clefG2
*k[b-]	*	*k[b-]	*k[b-]	*k[b-]
*B-:	*	*B-:	*B-:	*B-:
*M4/4	*	*M4/4	*M4/4	*M4/4
*met(c)	*	*met(c)	*met(c)	*met(c)
*all\right	*	*	*	*
=1-	=1-	=1-	=1-	=1-
!LO:TX:b:i:t=Adagio	!	!LO:TX:b:i:t=Adagio.	!LO:TX:b:i:t=Adagio.	!LO:TX:b:i:t=Adagio
[1BB-	.	[1BB-	1dd	2.ff\
.	.	.	.	4gg\
=2-	=2-	=2-	=2-	=2-
2BB-/]	-4 2	2BB-/]	2.cc\	2.ee-X\
!	!	!LO:TX:t=P:problem=kreska pseudotaktowa	!	!
2AA/	.	2AA/	.	.
.	.	.	4cc\	4ff\
=3-	=3-	=3-	=3-	=3-
1BB-	.	1BB-	2dd\	2ff\
.	.	.	4r	4r
!	!	!	!LO:TX:t=P:problem=kreska pseudotaktowa	!
.	.	.	4d/	4f/
=4-	=4-	=4-	=4-	=4-
4r	.	4r	2g/	2b-/
4GG/	.	4GG/	.	.
*2\right	*	*	*	*
!LO:TX:t=P:problem=kreska pseudotaktowa	!	!LO:TX:t=P:problem=kreska pseudotaktowa	!	!
2E-X\	5	2E-X\	4r	4r
!	!	!	!LO:TX:t=P:problem=kreska pseudotaktowa	!LO:TX:t=P:problem=kreska pseudotaktowa
.	.	.	4g/	4b-/
=5-	=5-	=5-	=5-	=5-
4r	.	4r	4.cc\	4.ee-X\
4C/	.	4C/	.	.
.	.	.	8b-/	8dd\
4F\	.	4F\	4a/	4cc\
4AA/	6	4AA/	4cc\	4ff\
=6-	=6-	=6-	=6-	=6-
4BB-/	.	4BB-/	4dd\	4ff\
!LO:N:acc=#	!	!LO:N:acc=#	!	!
4BBn/	6 -5	4BBn/	4dd\	2ff\
!LO:TX:t=P:problem=kreska pseudotaktowa	!	!LO:TX:t=P:problem=kreska pseudotaktowa	!	!
2C/	4	2C/	2g/	.
!	!	!	!	!LO:TX:t=P:problem=kreska pseudotaktowa
.	3	.	.	4eeny\
=7-	=7-	=7-	=7-	=7-
2FF/	.	2FF/	4a/	4ff\
.	.	.	4a/	4cc\
4r	.	4r	2dd\	2ff\
4DD/	.	4DD/	.	.
=8-	=8-	=8-	=8-	=8-
2BB-y/	.	2BB-y/	4r	4r
.	.	.	4dd\	4ff\
4r	.	4r	2gg\	2bb-\
!LO:TX:t=P:problem=kreska pseudotaktowa	!	!LO:TX:t=P:problem=kreska pseudotaktowa	!	!
4GG/	.	4GG/	.	.
=9-	=9-	=9-	=9-	=9-
2E-X\	.	2E-X\	4r	4r
.	.	.	4g/	4b-/
4r	.	4r	4.cc\	[2ee-X\
4C/	.	4C/	.	.
.	.	.	8b-/	.
=10-	=10-	=10-	=10-	=10-
1F	-7 3	1F	2a/	2ee-\]
.	6 4	.	1b-/	2dd\
*	*	*	*	*custos:cc
!	!	!	!	!LO:LB:g=original
=11-	=11-	=11-	=11-	=11-
!LO:TX:t=P:problem=kreska pseudotaktowa	!	!	!	!
1FF	5 4	1FF	.	2.cc\
!	!	!	!LO:TX:t=P:problem=kreska pseudotaktowa	!
.	_ 3	.	2a/	.
.	.	.	.	4cc\
=12-	=12-	=12-	=12-	=12-
!LO:TX:t=P:problem=mixed beam	!	!	!LO:TX:b:i:t=Allegro.	!
8BB-/L	X	4BB-/	8b-/L	4dd\
*clefC1	*	*	*	*
!LO:TX:b:t=allegro.	!	!	!	!
8b-X\J	.	.	8b-/J	.
!	!	!	!LO:TX:t=P:problem=mixed beam	!
8ff\L	.	4r	8ff\L	4r
8a\J	.	.	8a/J	.
*	*	*	*custos:dd	*
!	!	!	!LO:LB:g=original	!
!	!	!LO:TX:t=P:problem=kreska pseudotaktowa	!LO:TX:t=P:problem=mixed beam	!LO:TX:t=P:problem=kreska pseudotaktowa
8dd\L	.	2r	8dd\L	2r
!LO:SIC:v:o=8g\J	!	!	!	!
8fJ	.	.	8f/J	.
8b-\L	.	.	8b-/L	.
16a\L	.	.	16a/L	.
!LO:TX:t=P:problem=kreska pseudotaktowa	!	!	!LO:TX:t=P:problem=kreska pseudotaktowa	!
16g\JJ	.	.	16g/JJ	.
=13-	=13-	=13-	=13-	=13-
!	!	!LO:TX:a:t=2	!	!LO:TX:b:i:t=Allegro.
4a\	6	0r	4a/	8r
.	.	.	.	8ff\L
8g\L	.	.	8g/L	8bb-\
8b-\J	.	.	8b-/J	8dd\J
!	!	!	!	!LO:TX:t=P:problem=mixed beam
4e-X/	.	.	4e-X/	8gg\L
.	.	.	.	8b-/J
8g\L	.	.	8g/L	8ee-X\L
!LO:TX:t=P:problem=kreska pseudotaktowa	!	!	!LO:TX:t=P:problem=kreska pseudotaktowa	!
8a\J	6	.	8a/J	16dd\L
!	!	!	!	!LO:TX:t=P:problem=kreska pseudotaktowa
.	.	.	.	16cc\JJ
=14-	=14-	=14-	=14-	=14-
4b-\	.	.	4b-/	8dd\L
.	.	.	.	8bb-\
4cc\	-	.	4cc\	8.aa\
.	.	.	.	16gg\Jk
!LO:TX:t=P:problem=mixed beam	!	!	!LO:TX:t=P:problem=mixed beam	!
8dd\L	.	.	8dd\L	8ff\L
8d\J	.	.	8d/J	8ff\
!LO:TX:t=P:problem=kreska pseudotaktowa	!	!	!LO:TX:t=P:problem=kreska pseudotaktowa	!
4e-X/	.	.	4e-X/	8.ee-X\
!	!	!	!	!LO:TX:t=P:problem=kreska pseudotaktowa
.	.	.	.	16dd\Jk
*	*	*custos:F	*	*
!	!	!LO:LB:g=original	!	!
=15-	=15-	=15-	=15-	=15-
8f/L	.	4r	8f/	8cc\L
8b-/	.	.	4b-/	8dd\
8f/	5	8r	.	8.cc\
*clefF4	*	*	*	*
!	!	!LO:TX:b:i:t=Allegro.	!	!
8F/J	4	8F\	8a/	.
.	.	.	.	16cc\Jk
!	!	!LO:TX:t=P:problem=mixed beam	!	!
8B-\L	.	8B-\L	8b-/	8dd\
8D\J	7	8D/J	4b-/	4dd\
!LO:TX:t=P:problem=mixed beam	!	!LO:TX:t=P:problem=mixed beam	!	!
8G\L	.	8G\L	.	.
!LO:TX:t=P:problem=kreska pseudotaktowa	!	!LO:TX:t=P:problem=kreska pseudotaktowa	!LO:TX:t=P:problem=kreska pseudotaktowa	!LO:TX:t=P:problem=kreska pseudotaktowa
8BB-/J	.	8BB-/J	8b-/	8dd\
=16-	=16-	=16-	=16-	=16-
4E-X\	.	8E-X\L	8g/L	8gg\L
.	.	16D\L	8a/J	16ff\L
!	!	!	!	!LO:SIC:v:o=16eeny\JJ
.	.	16C\JJ	.	16ee-\JJ
4BB-/	.	16BB-/LL	8.b-/L	8.dd\L
.	.	16C/	.	.
.	.	16D/	.	.
.	.	16E-/JJ	16b-/Jk	16dd\Jk
!	!	!LO:TX:t=P:problem=mixed beam	!	!
8E-/L	6	8F\L	8a/	8cc\L
8AA/	.	8AA/	4f/	8cc\J
8BB-/	.	8BB-/	.	8.g/L
!LO:TX:t=P:problem=kreska pseudotaktowa	!	!LO:TX:t=P:problem=kreska pseudotaktowa	!LO:TX:t=P:problem=kreska pseudotaktowa	!
8C/J	.	8C/J	8eny/	.
!	!	!	!	!LO:TX:t=P:problem=kreska pseudotaktowa
.	.	.	.	16g/Jk
*	*	*	*	*custos:a
!	!	!	!	!LO:LB:g=original
=17-	=17-	=17-	=17-	=17-
!	!	!LO:TX:t=P:problem=mixed beam	!	!
4F\	.	8FF/L	8f/L	8a/L
.	.	8F\	8a/J	8cc/J
8D\L	-	8D\	8dd\L	8ff\L
!	!	!	!LO:N:acc=#	!
8G\J	#	8G\J	8bn\J	8dd\J
8C\L	-	8C\L	8cc\L	8ee-X\L
8F\J	.	8F\	8a\J	8cc\J
!LO:TX:t=P:problem=mixed beam	!	!	!LO:SIC:v:o=8b/L	!LO:TX:t=P:problem=kreska pseudotaktowa
8BB-/L	10 8	8BB-\	8b-/L	4dd\
!LO:TX:t=P:problem=kreska pseudotaktowa	!	!LO:TX:t=P:problem=kreska pseudotaktowa	!	!
8E-X\J	7 3	8E-X\J	[8g/J	.
*	*	*	*custos:g	*
!	!	!	!LO:LB:g=original	!
=18-	=18-	=18-	=18-	=18-
8AA/L	3 7	8AA/L	8g/]	4cc\
8D/	7 3	8D/	4f/	.
8GG/	3 7	8GG/	.	4b-/
8C/J	7 3	8C/J	8e-X/	.
8FF/L	-3 7	8FF/L	8e-/L	4a-X/
8BB-/J	7 3	8BB-/J	8d/J	.
!LO:TX:t=P:problem=mixed beam	!	!LO:TX:t=P:problem=mixed beam	!LO:TX:t=P:problem=kreska pseudotaktowa	!LO:TX:t=P:problem=kreska pseudotaktowa
8E-X\L	5 3	8E-X\L	4e-X/	4g/
!LO:TX:t=P:problem=kreska pseudotaktowa	!	!LO:TX:t=P:problem=kreska pseudotaktowa	!	!
8GG/J	.	8GG/J	.	.
=19-	=19-	=19-	=19-	=19-
!	!	!	!LO:SIC:v:o=8eny/	!
8AA/L	6 5	8AA/L	8e-/	4f/
!LO:N:acc=#	!	!LO:N:acc=#	!	!
8BBn/	-	8BBn/	4d/	.
8C/	9 3	8C/	.	4e-X/
8AA/J	-5	8AA/J	8c/	.
8BB-y\L	.	8BB-y\L	8c/	4d/
8D\	6	8D\	4B-X/	.
!	!	!	!	!LO:TX:t=P:problem=kreska pseudotaktowa
8E-X\	6 5	8E-X\	.	4c/
!	!	!LO:TX:t=P:problem=kreska pseudotaktowa	!LO:TX:t=P:problem=kreska pseudotaktowa	!
8F\J	.	8F\J	8A/	.
!LO:LB:g=original	!	!LO:LB:g=original	!	!
=20-	=20-	=20-	=20-	=20-
!	!	!LO:TX:t=P:problem=mixed beam	!	!
4BB-/	.	8B-\L	4B-/	4d/
.	.	8BB-/	.	.
!LO:TX:t=P:problem=mixed beam	!	!	!	!
8F\L	.	8F\	8r	4r
8AA/J	6	8AA/J	8cc\	.
!	!	!LO:TX:t=P:problem=mixed beam	!LO:TX:t=P:problem=mixed beam	!
8D/L	.	8D\L	8ff\L	2r
8FF/J	.	8FF/J	8a/J	.
!LO:TX:t=P:problem=kreska pseudotaktowa	!	!	!	!
4BB-/	.	8BB-/L	8dd\L	.
.	.	16AA/L	16cc\L	.
!	!	!LO:TX:t=P:problem=kreska pseudotaktowa	!LO:TX:t=P:problem=kreska pseudotaktowa	!
.	.	16GG/JJ	16b-y\JJ	.
=21-	=21-	=21-	=21-	=21-
!	!	!LO:TX:t=P:problem=mixed beam	!	!
4F\	.	8FF/L	16a/LL	2r
.	.	.	16g/	.
.	.	8F\	16f/	.
.	.	.	16g/JJ	.
8G\L	6-	8G\	8e-X/L	.
8A\J	.	8A\J	16d/L	.
.	.	.	16c/JJ	.
4B-\	.	4B-\	4d/	8r
.	.	.	.	8dd\L
!LO:TX:t=P:problem=kreska pseudotaktowa	!	!LO:TX:t=P:problem=kreska pseudotaktowa	!LO:TX:t=P:problem=kreska pseudotaktowa	!
4G\	.	4G\	4g/	8bb-\
!	!	!	!	!LO:TX:t=P:problem=kreska pseudotaktowa
.	.	.	.	8dd\J
=22-	=22-	=22-	=22-	=22-
!	!	!	!	!LO:TX:t=P:problem=mixed beam
4E-X\	.	4E-X\	8b-/L	8gg\L
.	.	.	8g/J	8b-/J
8GG/L	6	8GG/L	8.b-/L	8ee-X\L
8AA/J	.	8AA/J	.	16dd\L
.	.	.	16cc/Jk	16cc\JJ
4BB-/	5	4BB-/	8f/L	8dd\
.	6	.	8b-/J	4gg\
8C/L	6 5	8C/L	8.a/L	.
!LO:TX:t=P:problem=kreska pseudotaktowa	!	!LO:TX:t=P:problem=kreska pseudotaktowa	!	!LO:TX:t=P:problem=kreska pseudotaktowa
8D/J	#	8D/J	.	8ff#X\
!	!	!	!LO:TX:t=P:problem=kreska pseudotaktowa	!
.	.	.	16dd/Jk	.
=23-	=23-	=23-	=23-	=23-
!	!	!LO:TX:t=P:problem=mixed beam	!	!
4GG/	.	8G\L	8b-/	4bb-\
.	.	8GG/	4gg\	.
8C/L	6 -5	8C/	.	4aa-X\
!	!	!	!LO:TX:t=P:problem=błędne oznaczenie custos	!
8D/J	5 3	8D/J	8ff\	.
*	*	*	*custos:dd	*
!	!	!	!LO:LB:g=original	!
8E-X\L	.	8E-X\L	8ff\	4gg\
8G\	.	8G\	4ee-X\	.
!	!	!	!	!LO:TX:t=P:problem=kreska pseudotaktowa
8A\	6 -5	8A\	.	4ffny\
!LO:N:acc=#	!	!LO:N:acc=#	!	!
!LO:TX:t=P:problem=kreska pseudotaktowa	!	!LO:TX:t=P:problem=kreska pseudotaktowa	!LO:TX:t=P:problem=kreska pseudotaktowa	!
8Bn\J	.	8Bn\J	8dd\	.
=24-	=24-	=24-	=24-	=24-
8c\L	-	8c\L	8dd\	4ee-X\
8A-X\	.	8A-X\	4cc\	.
8F\	6 5	8F\	.	4dd\
!	!	!	!LO:N:acc=#	!
8G\J	#	8G\J	8bn/	.
*	*	*	*	*custos:ee
!	!	!	!	!LO:LB:g=original
4.C/	-	4C/	4cc\	8ee-X\L
.	.	.	.	8cc\J
!	!	!LO:TX:t=P:problem=kreska pseudotaktowa	!LO:TX:t=P:problem=kreska pseudotaktowa	!LO:TX:t=P:problem=mixed beam
.	.	4r	4r	8gg\L
!	!	!	!	!LO:TX:t=P:problem=kreska pseudotaktowa
!LO:TX:t=P:problem=kreska pseudotaktowa	!	!	!	!LO:N:acc=#
8D/	#	.	.	8bn/J
=25-	=25-	=25-	=25-	=25-
4C/	-	1r	2r	8cc/L
.	.	.	.	8g/J
8C/L	6\	.	.	8a-X/L
8D/J	.	.	.	16g/L
.	.	.	.	16f/JJ
4.E-X\	.	.	8r	8g/
.	.	.	8c/L	4gg\
.	.	.	8g/	.
!	!	!	!LO:N:acc=#	!
!LO:TX:t=P:problem=kreska pseudotaktowa	!	!	!LO:TX:t=P:problem=kreska pseudotaktowa	!LO:TX:t=P:problem=kreska pseudotaktowa
8D/	6\	.	8Bn/J	8ff\
=26-	=26-	=26-	=26-	=26-
2C/	-	2r	8c/L	8ee-X\
.	.	.	8g/J	4ee-\
.	.	.	8cc\L	.
.	.	.	16b-y\L	16dd\LL
.	.	.	16a\JJ	16cc\JJ
4G\	.	8r	8b-/L	8dd\
.	.	8GG/L	16a/L	4dd\
.	.	.	16g/JJ	.
!	!	!	!LO:TX:t=P:problem=kreska pseudotaktowa	!
8D\L	.	8D/	4a/	.
!LO:TX:t=P:problem=kreska pseudotaktowa	!	!LO:TX:t=P:problem=kreska pseudotaktowa	!	!LO:TX:t=P:problem=kreska pseudotaktowa
8F#X\J	6	8FF#X/J	.	8dd\
*	*	*custos:GG	*	*
!	!	!LO:LB:g=original	!	!
=27-	=27-	=27-	=27-	=27-
!LO:TX:t=P:problem=mixed beam	!	!	!	!
8G\L	.	8GG/L	8b-\L	8b-y/
8BB-/J	.	8BB-/J	8dd\J	4b-/
8E-X\L	.	8E-X\L	8gg\L	.
16D\L	.	16D\L	16ff\L	8cc\
16C\JJ	.	16C\JJ	16eeny\JJ	.
4.D\	5	8D/	8dd\	8f/L
.	.	4D/	4ff\	8f/J
.	6	.	.	8b-/L
!LO:TX:t=P:problem=kreska pseudotaktowa	!	!LO:TX:t=P:problem=kreska pseudotaktowa	!LO:TX:t=P:problem=kreska pseudotaktowa	!
8Eny\	.	8Eny\	8gg\	16any/L
!	!	!	!	!LO:TX:t=P:problem=kreska pseudotaktowa
.	.	.	.	16g/JJ
=28-	=28-	=28-	=28-	=28-
4.Fny\	.	8F\	8cc\L	8a/
.	.	4FFny/	8cc\J	4a/
.	.	.	8ff\L	.
!	!	!	!	!LO:N:acc=#
8F\	.	8FF/	16ee-X\L	8bn/
.	.	.	16dd\JJ	.
2C/	-	8C/L	8ee-X\	8cc/L
.	.	8.C/J	4ee-\	8g/J
.	.	.	.	8cc/L
.	.	16D\LL	.	.
!	!	!	!	!LO:SIC:v:o=16b/L
.	.	16E-X\	8ee-\	16b-/L
!	!	!LO:TX:t=P:problem=kreska pseudotaktowa	!	!LO:TX:t=P:problem=kreska pseudotaktowa
.	.	16F\JJ	.	16a/JJ
*	*	*	*custos:dd	*custos:b
!	!	!	!LO:LB:g=original	!LO:LB:g=original
=29-	=29-	=29-	=29-	=29-
2G\	.	8G\	8dd\L	8b-y/
.	.	4GG/	8dd\J	4b-/
.	.	.	8gg\L	.
.	.	8GG/	16ff\L	8cc\
.	.	.	16eeny\JJ	.
!	!	!LO:TX:t=P:problem=mixed beam	!	!
4D/	.	8D\L	4ff\	8dd\
.	.	8DD/J	.	4dd\
!	!	!	!LO:TX:t=P:problem=kreska pseudotaktowa	!
8GG/L	6 5	8GG/L	4ee-X\	.
!LO:TX:t=P:problem=kreska pseudotaktowa	!	!LO:TX:t=P:problem=kreska pseudotaktowa	!	!LO:TX:t=P:problem=kreska pseudotaktowa
8AA/J	-	8AA/J	.	8cc\
=30-	=30-	=30-	=30-	=30-
8BB-\L	9	8BB-\L	4dd\	8cc\
8D\	6	8D\	.	4b-/
8E-X\	6 5	8E-X\	4cc\	.
8F\J	.	8F\J	.	8a/
4.BB-/	.	4BB-/	8dd\L	4b-/
.	.	.	8b-\J	.
!	!	!	!LO:TX:t=P:problem=mixed beam	!LO:TX:t=P:problem=kreska pseudotaktowa
.	.	4r	8ff\L	4r
!LO:TX:t=P:problem=kreska pseudotaktowa	!	!	!LO:TX:t=P:problem=kreska pseudotaktowa	!
8C/	.	.	8a/J	.
=31-	=31-	=31-	=31-	=31-
!	!	!	!LO:TX:t=P:problem=mixed beam	!
4BB-/	.	0r	8dd\L	2r
.	.	.	8f/J	.
8D\L	6	.	8b-/L	.
8Eny\J	.	.	16a/L	.
.	.	.	16g/JJ	.
8F\L	.	.	8a/L	8r
8Any\J	6	.	8cc/J	8ff\L
!LO:TX:t=P:problem=kreska pseudotaktowa	!	!	!LO:TX:t=P:problem=kreska pseudotaktowa	!
4G\	.	.	4b-/	8bb-\
!	!	!	!	!LO:TX:t=P:problem=kreska pseudotaktowa
.	.	.	.	8dd\J
=32-	=32-	=32-	=32-	=32-
!	!	!	!	!LO:TX:t=P:problem=mixed beam
4E-X\	.	.	8r	8gg\L
.	.	.	8g/L	8b-/J
8GG/L	6	.	8.b-/	8ee-X\L
8AA/J	.	.	.	16dd\L
.	.	.	16cc/Jk	16cc\JJ
4BB-/	.	.	4dd\	8dd\L
.	.	.	.	8bb-\
!LO:TX:t=P:problem=kreska pseudotaktowa	!	!	!LO:TX:t=P:problem=kreska pseudotaktowa	!
4C/	6 -	.	4ee-X\	8.aany\
!	!	!	!	!LO:TX:t=P:problem=kreska pseudotaktowa
.	.	.	.	16gg\Jk
=33-	=33-	=33-	=33-	=33-
4D\	.	2r	8dd\L	8ff\L
.	.	.	8dd\J	8ff\
4E-X\	.	.	8.cc\L	8.ee-X\
.	.	.	16b-\Jk	16dd\Jk
2F\	5 3	4r	8a/	8cc\L
.	6 4	.	4b-/	8dd\
.	.	8r	.	8.cc\
!	!	!LO:TX:t=P:problem=kreska pseudotaktowa	!LO:TX:t=P:problem=kreska pseudotaktowa	!
.	5 3	8F\	8a/	.
!	!	!	!	!LO:TX:t=P:problem=kreska pseudotaktowa
.	.	.	.	16cc\Jk
*custos:B	*	*	*	*
!LO:LB:g=original	!	!	!	!
=34-	=34-	=34-	=34-	=34-
!	!	!LO:TX:t=P:problem=mixed beam	!	!
8B-\L	.	8B-y\L	8b-/	8dd\
8D\J	.	8D/J	4b-/	4dd\
!LO:TX:t=P:problem=mixed beam	!	!LO:TX:t=P:problem=mixed beam	!	!
8G\L	.	8G\L	.	.
8BB-/J	.	8BB-/J	8b-/	8dd\
*custos:E	*	*custos:E	*	*
!	!	!LO:LB:g=original	!	!
4E-X\	.	8E-X\L	8g/L	8gg\L
.	.	16D\L	8a/J	16ff\L
!	!	!	!	!LO:SIC:v:o=16eeny\JJ
.	.	16C\JJ	.	16ee-\JJ
!LO:TX:t=P:problem=kreska pseudotaktowa	!	!	!	!
4BB-/	.	16BB-/LL	8.b-/L	8.dd\L
.	.	16C/	.	.
.	.	16D/	.	.
!	!	!LO:TX:t=P:problem=kreska pseudotaktowa	!	!
.	.	16E-/JJ	16b-/Jk	16dd\Jk
*	*	*	*custos:a	*custos:cc
!	!	!	!LO:LB:g=original	!LO:LB:g=original
=35-	=35-	=35-	=35-	=35-
!LO:TX:t=P:problem=mixed beam	!	!LO:TX:t=P:problem=mixed beam	!	!
8F\L	.	8F\L	8a/	8cc\L
8AA/	6	8AA/	4f/	8cc\J
8BB-/	.	8BB-/	.	8.g/L
8C/J	.	8C/J	8eny/	.
.	.	.	.	16g/Jk
!LO:TX:t=P:problem=mixed beam	!	!LO:TX:t=P:problem=mixed beam	!	!
8FF/L	.	8FF/L	8f/L	8a/L
8F\	.	8F\	8a/J	8cc/J
8D\	.	8D\	8dd\L	8ff\L
!	!	!	!LO:N:acc=#	!
!LO:TX:t=P:problem=kreska pseudotaktowa	!	!LO:TX:t=P:problem=kreska pseudotaktowa	!LO:TX:t=P:problem=kreska pseudotaktowa	!LO:TX:t=P:problem=kreska pseudotaktowa
8G\J	.	8G\J	8bn\J	8dd\J
=36-	=36-	=36-	=36-	=36-
!LO:TX:t=P:problem=mixed beam	!	!	!	!
8C\L	.	8C\L	8cc/L	8ee-X\L
8F\	.	8F\	8a/	8cc\J
8BB-/	.	8BB-\	8b-y/	4dd\
8E-X/J	.	8E-X\J	8g/J	.
8AA/L	.	8AA/L	8g/	4cc\
8D/	.	8D/	4f/	.
!	!	!	!	!LO:TX:t=P:problem=kreska pseudotaktowa
8GG/	.	8GG/	.	4b-/
!LO:TX:t=P:problem=kreska pseudotaktowa	!	!LO:TX:t=P:problem=kreska pseudotaktowa	!LO:TX:t=P:problem=kreska pseudotaktowa	!
8C/J	.	8C/J	8e-X/	.
=37-	=37-	=37-	=37-	=37-
!	!	!	!LO:SIC:v:o=8eny/L	!
8FF/L	.	8FF/L	8e-/L	4a-X/
8BB-/J	.	8BB-/J	8d/J	.
!LO:TX:t=P:problem=mixed beam	!	!LO:TX:t=P:problem=mixed beam	!	!
8E-X\L	.	8E-X\L	4e-X/	4g/
8GG/J	.	8GG/J	.	.
8AA/L	.	8AA/L	8e-/	4f/
!LO:TX:b:t=P:problem=# below	!	!	!	!
!LO:N:acc=#	!	!LO:N:acc=#	!	!
8BBn/	.	8BBn/	4d/	.
!	!	!	!	!LO:TX:t=P:problem=kreska pseudotaktowa
8C/	.	8C/	.	4e-X/
!LO:TX:t=P:problem=kreska pseudotaktowa	!	!LO:TX:t=P:problem=kreska pseudotaktowa	!LO:TX:t=P:problem=kreska pseudotaktowa	!
8AA/J	.	8AA/J	8c/	.
=38-	=38-	=38-	=38-	=38-
8BB-y/L	.	8BB-y/L	8c/	8d/L
8D/	.	8D/	4B-X/	8d/J
8E-X/	.	8E-X/	.	8.c/L
8F/J	.	8F/J	8A/	.
.	.	.	.	16c/Jk
8BB-/	.	4BB-/	8B-X/	8d/
8r	.	.	8r	8r
4r	.	4r	4r	4r
=39||	=39||	=39||	=39||	=39||
*M3/4	*	*M3/4	*M3/4	*M3/4
!	!	!LO:TX:b:i:t=Adagio	!	!
4BB-/	.	4BB-/	4dd\	4ff\
4E-X\	.	4E-\	4ee-X\	4gg\
!	!	!	!LO:TX:t=P:problem=kreska pseudotaktowa	!
4C/	6	4C/	4ee-\	4aa\
*	*	*custos:BB	*	*
!	!	!LO:LB:g=original	!	!
=40-	=40-	=40-	=40-	=40-
!LO:TX:t=P:problem=kreska pseudotaktowa	!	!	!	!
2.BB-/	.	2BB-/	4.dd\	4.bb-\
.	.	.	8dd\	8aa\
!	!	!	!	!LO:TX:t=P:problem=kreska pseudotaktowa
.	.	4BB-/	4dd\	4bb-\
=41-	=41-	=41-	=41-	=41-
4AA/	6	4AA/	4cc\	4ff\
4BB-/	.	4BB-/	4dd\	4.ff\
4C/	.	4C/	4g/	.
!	!	!	!	!LO:TX:t=P:problem=kreska pseudotaktowa
.	.	.	.	8ee\
*	*	*	*custos:a	*
!	!	!	!LO:LB:g=original	!
=42-	=42-	=42-	=42-	=42-
!LO:TX:t=P:problem=kreska pseudotaktowa	!	!	!	!
2.FF/	.	2FF/	4.a/	4.ff\
.	.	.	8a/	8ff\
!	!	!LO:TX:t=P:problem=kreska pseudotaktowa	!LO:TX:t=P:problem=kreska pseudotaktowa	!
.	.	4FF/	4a/	4ff\
*	*	*	*	*custos:ff
!	!	!	!	!LO:LB:g=original
=43-	=43-	=43-	=43-	=43-
4FF/	.	4FF/	4a/	4ff\
!	!	!	!LO:N:acc=#	!
2GG/	7 #3	4.GG/	4.bn/	4.ff\
!	!	!	!LO:TX:t=P:problem=kreska pseudotaktowa	!
.	.	8GG/	8b/	8ff\
=44-	=44-	=44-	=44-	=44-
4.C/	-	4.C/	2cc\	4.ee-X\
8D/	.	8D/	.	8ff\
!LO:TX:t=P:problem=kreska pseudotaktowa	!	!LO:TX:t=P:problem=kreska pseudotaktowa	!	!
4E-X\	.	4E-X\	4g/	4gg\
=45-	=45-	=45-	=45-	=45-
4.F\	.	4.F\	4.a/	4.ff\
!	!	!	!LO:N:acc=#	!
8G\	.	8G\	8bn/	8ee-X\
4A-X\	.	4A-X\	4cc\	4ee-\
=46-	=46-	=46-	=46-	=46-
4F\	6 5	4F\	4cc\	4dd\
4G\	4	4G\	4.cc\	4.dd\
!LO:TX:t=P:problem=kreska pseudotaktowa	!	!LO:TX:t=P:problem=kreska pseudotaktowa	!	!
4GG/	.	4GG/	.	.
!	!	!	!LO:N:acc=#	!
!	!	!	!LO:TX:t=P:problem=kreska pseudotaktowa	!LO:TX:t=P:problem=kreska pseudotaktowa
.	3	.	8bn/	8dd\
=47-	=47-	=47-	=47-	=47-
2.C/	-	2C/	4.cc\	4.ee-X\
!	!	!	!LO:N:acc=#	!
.	.	.	8bn/	8dd\
.	.	4C/	4cc\	4ee-\
=48-	=48-	=48-	=48-	=48-
4C/	-	4C/	4cc\	4ee-X\
2F\	-7 3	4F\	4.a/	4.ee-\
.	.	4FF/	.	.
!	!	!	!LO:TX:t=P:problem=kreska pseudotaktowa	!LO:TX:t=P:problem=kreska pseudotaktowa
.	.	.	8a/	8dd\
=49-	=49-	=49-	=49-	=49-
4BB-/	.	4BB-/	4b-y/	4dd\
!LO:TX:t=P:problem=kreska pseudotaktowa	!	!	!	!
2D/	7 3#	4D/	4.f#X/	4.cc\
!	!	!LO:TX:t=P:problem=kreska pseudotaktowa	!	!
.	.	4DD/	.	.
.	.	.	8f#/	8dd\
=50-	=50-	=50-	=50-	=50-
4.GG/	.	4.GG/	2g/	4.b-/
8AA/	.	8AA/	.	8cc\
!	!	!	!LO:TX:t=P:problem=kreska pseudotaktowa	!LO:TX:t=P:problem=kreska pseudotaktowa
4BB-/	.	4BB-/	4d/	4dd\
=51-	=51-	=51-	=51-	=51-
4.C/	#	4.C/	4.e/	4.cc\
8D/	.	8D/	8fny/	8b-/
!LO:TX:t=P:problem=kreska pseudotaktowa	!	!	!	!
4E-X\	.	4E-X\	4g/	4b-/
*	*	*custos:C	*	*
!	!	!LO:LB:g=original	!	!
=52-	=52-	=52-	=52-	=52-
4C/	.	4C/	4g/	4a/
4D/	4	4D/	4.g/	4.a/
4DD/	.	4DD/	.	.
!	!	!	!LO:TX:t=P:problem=kreska pseudotaktowa	!LO:TX:t=P:problem=kreska pseudotaktowa
.	3	.	8f#X/	8a/
*	*	*	*custos:g	*
!	!	!	!LO:LB:g=original	!
=53-	=53-	=53-	=53-	=53-
4GG/	.	4GG/	4g/	4b-/
4C/	.	4C/	4r	4r
!	!	!LO:TX:t=P:problem=kreska pseudotaktowa	!LO:TX:t=P:problem=kreska pseudotaktowa	!LO:TX:t=P:problem=kreska pseudotaktowa
4EE/	6	4EE/	4r	4r
=54-	=54-	=54-	=54-	=54-
2FF/	.	2FF/	4a/	4cc\
.	.	.	4dd\	4ff\
!	!	!	!LO:N:acc=#	!
!	!	!	!LO:TX:t=P:problem=kreska pseudotaktowa	!
4GG/	.	4GG/	4bn/	4dd\
*	*	*	*	*custos:ee-
!LO:LB:g=original	!	!	!	!LO:LB:g=original
=55-	=55-	=55-	=55-	=55-
4C/	.	4C/	4cc\	4ee-X\
2F\	-7 3	4F\	4.a/	4.ee-\
!	!	!LO:TX:t=P:problem=kreska pseudotaktowa	!	!
.	.	4FF/	.	.
!	!	!	!	!LO:TX:t=P:problem=kreska pseudotaktowa
.	.	.	8a/	8dd\
=56-	=56-	=56-	=56-	=56-
4.BB-/	.	4.BB-/	2b-y/	4.dd\
!	!	!	!	!LO:SIC:v:o=8eeny\
8C/	.	8C/	.	8ee-\
!LO:TX:t=P:problem=kreska pseudotaktowa	!	!	!	!
4D/	.	4D/	4fny/	4ff\
=57-	=57-	=57-	=57-	=57-
4.E-X\	.	4.E-X\	4.g/	4.ee-X\
8F\	.	8F\	8a/	8dd\
4G\	.	4G\	4b-/	4dd\
=58-	=58-	=58-	=58-	=58-
4E-X\	6 5	4E-X\	4b-/	4cc\
2F\	4	2F\	4.b-/	4.cc\
.	3	.	8a/	8cc\
=59-	=59-	=59-	=59-	=59-
*M4/4	*	*M4/4	*M4/4	*M4/4
*met(c)	*	*met(c)	*met(c)	*met(c)
!	!	!LO:TX:t=P:problem=mixed beam	!	!
4.BB-/	.	8B-\L	4b-/	4b-/
.	.	8BB-/	.	.
.	.	8BB-/	4r	4r
8BB-/	.	8BB-/J	.	.
!	!	!	!LO:TX:t=P:problem=kreska pseudotaktowa	!
8C\L	.	8C/L	2r	2r
8D\	.	8D/	.	.
8E-X\	.	8E-X/	.	.
!LO:TX:t=P:problem=kreska pseudotaktowa	!	!LO:TX:t=P:problem=kreska pseudotaktowa	!	!
8F\J	.	8F/J	.	.
=60-	=60-	=60-	=60-	=60-
8D/L	.	8D/L	8r	1r
8BB-/	.	8BB-/	8f/L	.
8AA/	6	8AA/	8f/	.
8BB-/J	.	8BB-/J	8f/J	.
!LO:TX:t=P:problem=kreska pseudotaktowa	!	!	!	!
2GG/	7	4.GG/	8g/L	.
.	.	.	8a/	.
.	6	.	8b-/	.
!	!	!LO:TX:t=P:problem=kreska pseudotaktowa	!LO:TX:t=P:problem=kreska pseudotaktowa	!
.	.	8GG/	8cc/J	.
=61-	=61-	=61-	=61-	=61-
4FF/	.	4FF/	8a/L	2r
.	.	.	8f/	.
8GG/L	.	8GG/L	8e-X/	.
8AA/J	.	8AA/J	8f/J	.
*	*	*custos:BB	*	*
!	!	!LO:LB:g=original	!	!
4BB-/	.	4BB-/	4d/	8r
.	.	.	.	8b-/L
!LO:TX:t=P:problem=kreska pseudotaktowa	!	!LO:TX:t=P:problem=kreska pseudotaktowa	!	!
4GG/	.	4GG/	8r	8b-/
!	!	!	!LO:TX:t=P:problem=kreska pseudotaktowa	!LO:TX:t=P:problem=kreska pseudotaktowa
.	.	.	8b-/	8b-/J
=62-	=62-	=62-	=62-	=62-
4EE-X/	6 5	4EE-X/	4b-/	8cc\L
.	.	.	.	8dd\
4FF/	7 3	4FF/	4a/	8ee-X\
.	.	.	.	8ff\J
!	!	!	!	!LO:TX:t=P:problem=mixed beam
2BB-/	.	4.BB-/	4.b-/	8dd\L
.	.	.	.	8g/
.	.	.	.	8f/
!	!	!LO:TX:t=P:problem=kreska pseudotaktowa	!	!LO:TX:t=P:problem=kreska pseudotaktowa
.	.	8BB-/	8b-/	8g/J
*	*	*	*custos:b	*
!	!	!	!LO:LB:g=original	!
=63-	=63-	=63-	=63-	=63-
4C/	7	4C/	8b-/L	4e/
.	6	.	8a/J	.
8D/L	-	8D/L	4b-/	4f/
8C/J	.	8C/J	.	.
4BB-/	6 5	8BB-/L	4.g/	4.f/
.	.	8GG/	.	.
!LO:TX:t=P:problem=kreska pseudotaktowa	!	!	!	!
4C/	4	8C/	.	.
!	!	!LO:TX:t=P:problem=kreska pseudotaktowa	!LO:TX:t=P:problem=kreska pseudotaktowa	!LO:TX:t=P:problem=kreska pseudotaktowa
.	3	8CC/J	8g/	8e/
=64-	=64-	=64-	=64-	=64-
!LO:TX:t=P:problem=mixed beam	!	!LO:TX:t=P:problem=mixed beam	!	!
8FF/L	.	8FF/L	8a/L	4f/
8F\	.	8F\	8a/	.
8Eny\	6	8Eny\	8g/	4r
8F\J	.	8F\J	8a/J	.
8D/L	.	8D/L	8f/L	8r
8BB-/	.	8BB-/	8f/J	8dd\L
!	!	!	!LO:TX:t=P:problem=kreska pseudotaktowa	!
8AA/	.	8AA/	4f#X/	8cc\
!LO:TX:t=P:problem=kreska pseudotaktowa	!	!LO:TX:t=P:problem=kreska pseudotaktowa	!	!
8BB-/J	.	8BB-/J	.	8dd\J
*	*	*	*	*custos:b
!	!	!	!	!LO:LB:g=original
=65-	=65-	=65-	=65-	=65-
!	!	!	!	!LO:TX:t=P:problem=mixed beam
4GG/	.	8GG/L	4g/	8b-/L
.	.	8GG/	.	8bb-\
8FF/L	.	8FF/	4r	8aa\
8GG/J	.	8GG/J	.	8bb-\J
!	!	!	!	!LO:TX:t=P:problem=kreska pseudotaktowa
4.DD/	6-	4.DD/	8r	2ff\
.	.	.	8b-/L	.
.	.	.	8b-/	.
!LO:TX:t=P:problem=kreska pseudotaktowa	!	!LO:TX:t=P:problem=kreska pseudotaktowa	!LO:TX:t=P:problem=kreska pseudotaktowa	!
8D\	.	8D\	8b-/J	.
=66-	=66-	=66-	=66-	=66-
8E-X\L	6	8E-X\L	8cc\L	2r
!	!	!	!LO:SIC:v:o=8dd-X\	!
8F\	6	8F\	8dd\	.
!	!	!	!LO:SIC:v:o=8eeny\	!
8G\	6	8G\	8ee-\	.
8Any\J	6	8Any\J	8ff\J	.
!	!	!	!LO:SIC:v:o=8dd-\L	!
4B-\	.	4B-\	8dd\L	8r
!	!	!	!LO:SIC:v:o=8dd-\	!
.	.	.	8dd\	8ff\L
8A\L	.	8A\L	8cc\	8ff\
!	!	!	!LO:TX:t=P:problem=kreska pseudotaktowa	!
!LO:TX:t=P:problem=kreska pseudotaktowa	!	!LO:TX:t=P:problem=kreska pseudotaktowa	!LO:SIC:v:o=8dd-\J	!LO:TX:t=P:problem=kreska pseudotaktowa
8B-\J	.	8B-\J	8dd\J	8ff\J
=67-	=67-	=67-	=67-	=67-
4G\	.	4G\	4b-/	8gg\L
.	.	.	.	8aa\
4Eny\	6 5	4Eny\	4g/	8bb-\
.	.	.	.	8ccc\J
*	*	*custos:F	*	*
!	!	!LO:LB:g=original	!	!
2F\	.	4.F\	4.a/	8aa\L
.	.	.	.	8ff\
.	.	.	.	8ee-X\
!	!	!	!LO:TX:t=P:problem=kreska pseudotaktowa	!
.	.	8F\	8a/	8ff\J
=68-	=68-	=68-	=68-	=68-
2BB-/	.	4.BB-/	8b-/L	8dd\L
.	.	.	8b-/	8dd\
.	.	.	8a/	8cc\
.	.	8BB-/	8b-/J	8dd\J
!LO:TX:t=P:problem=kreska pseudotaktowa	!	!	!	!
2E-X\	5	4.E-X\	8g/L	8b-\L
.	.	.	8cc/	8ee-X\
.	.	.	8b-/	8dd\
!	!	!LO:TX:t=P:problem=kreska pseudotaktowa	!LO:TX:t=P:problem=kreska pseudotaktowa	!LO:TX:t=P:problem=kreska pseudotaktowa
.	6	8E-\	8cc/J	8ee-\J
=69-	=69-	=69-	=69-	=69-
2F\	5	4.F\	8a/L	8cc\L
.	.	.	8ddny/	8ff\J
.	6	.	8cc/	[4ff\
.	.	8F\	8dd/J	.
!	!	!	!LO:N:acc=#	!
4G\	#	4G\	4bn/	8ff\L]
.	.	.	.	8ee-X\J
!	!	!	!	!LO:TX:t=P:problem=kreska pseudotaktowa
8A-X\L	.	8A-X\L	2cc\	4ee-\
!LO:TX:t=P:problem=kreska pseudotaktowa	!	!LO:TX:t=P:problem=kreska pseudotaktowa	!	!
8G\J	.	8G\J	.	.
=70-	=70-	=70-	=70-	=70-
4F\	.	4F\	.	4.dd\
!	!	!	!LO:N:acc=#	!
4G\	#	4G\	4bn/	.
.	.	.	.	8dd\
*	*	*	*custos:cc	*
!	!	!	!LO:LB:g=original	!
!LO:TX:t=P:problem=mixed beam	!	!LO:TX:t=P:problem=mixed beam	!	!
8C/L	.	8C/L	8cc\L	4eeny\
8c\	.	8c\	8ee\	.
!	!	!	!	!LO:TX:t=P:problem=kreska pseudotaktowa
8B-\	.	8B-\	8dd\	4r
!	!	!LO:TX:t=P:problem=kreska pseudotaktowa	!LO:TX:t=P:problem=kreska pseudotaktowa	!
8c\J	.	8c\J	8ee\J	.
=71-	=71-	=71-	=71-	=71-
4Any\	.	4Any\	8cc\L	8r
.	.	.	8ee\J	8ccc\L
8G\L	6	8G\L	4ee\	8bb-\
8A\J	.	8A\J	.	8ccc\J
4F\	.	4F\	8ff\L	4aa\
.	.	.	8cc\J	.
!	!	!LO:TX:t=P:problem=kreska pseudotaktowa	!LO:TX:t=P:problem=kreska pseudotaktowa	!
4Eny\	#	4Eny\	4cc#X\	8gg\L
.	.	.	.	8aa\J
*	*	*	*	*custos:ff
!LO:LB:g=original	!	!	!	!LO:LB:g=original
=72-	=72-	=72-	=72-	=72-
4D/	.	4D/	8dd\L	8ff\L
.	.	.	8a\J	8ff\
4C/	6	4C/	4a/	8ee\
.	.	.	.	8ff\J
!	!	!LO:TX:t=P:problem=mixed beam	!	!LO:TX:t=P:problem=kreska pseudotaktowa
4BB-/	.	8BB-/L	2b-y/	2dd\
.	.	8B-\	.	.
4B-\	.	8A\	.	.
!	!	!LO:TX:t=P:problem=kreska pseudotaktowa	!	!
.	.	8B-\J	.	.
=73-	=73-	=73-	=73-	=73-
!LO:SIC:v:o=2E-\	!	!LO:N:acc=#	!	!
2E	6 5	8En\L	4.b-/	4.cc\
.	.	8G\J	.	.
.	.	8C/L	.	.
.	.	8E/J	8b-/	8cc\
!	!	!	!LO:TX:t=P:problem=mixed beam	!
4F\	.	4F\	8a/L	8cc\L
.	.	.	8ff\	8aa\
4FF/	.	4FF/	8ee\	8gg\
!	!	!	!LO:TX:t=P:problem=kreska pseudotaktowa	!LO:TX:t=P:problem=kreska pseudotaktowa
.	.	.	8ff\J	8aa\J
*	*	*custos:BB	*	*
!	!	!LO:LB:g=original	!	!
=74-	=74-	=74-	=74-	=74-
2BB-/	5	4.BB-/	8dd\L	8ff\L
.	.	.	8gg\	8bb-\
.	.	.	8ff\	8aa\
.	6	8BB-/	8gg\J	8bb-\J
!LO:TX:t=P:problem=kreska pseudotaktowa	!	!	!	!
2C/	5	4.C/	8ee\L	8aa\L
.	.	.	8aa\	8ccc\J
!	!	!	!	!LO:TX:t=P:problem=kreska pseudotaktowa
.	.	.	8gg\	[4ccc\
!	!	!	!LO:TX:t=P:problem=kreska pseudotaktowa	!
.	6	8C/	8aa\J	.
=75-	=75-	=75-	=75-	=75-
4D/	7 #	4D/	4ff#X\	8ccc\L]
.	.	.	.	8bb-\J
8E-X\L	.	8E-X\L	4gg\	4bb-\
8D\J	.	8D\J	.	.
4C/	6 5	4C/	4.gg\	4.aa\
!LO:TX:t=P:problem=kreska pseudotaktowa	!	!LO:TX:t=P:problem=kreska pseudotaktowa	!	!
4D/	.	4D/	.	.
!	!	!	!LO:TX:t=P:problem=kreska pseudotaktowa	!LO:TX:t=P:problem=kreska pseudotaktowa
.	.	.	8ff#X\	8aa\
=76-	=76-	=76-	=76-	=76-
!	!	!	!LO:TX:t=P:problem=mixed beam	!
4G\	.	4GG/	8gg\L	4bb-\
.	.	.	8b-/	.
2G\	2	4r	8b-/	4r
.	.	.	8b-/J	.
!	!	!	!	!LO:TX:t=P:problem=kreska pseudotaktowa
.	.	2r	8a/L	2r
.	.	.	8b-/	.
4F#X\	6	.	8ccny/	.
!	!	!	!LO:TX:t=P:problem=kreska pseudotaktowa	!
.	.	.	8dd/J	.
=77-	=77-	=77-	=77-	=77-
4G\	.	1r	4b-/	8r
.	.	.	.	8dd\L
4Fny\	.	.	4a/	8dd\
.	6	.	.	8dd\J
!LO:TX:t=P:problem=kreska pseudotaktowa	!	!	!	!
2Eny\	7	.	8g/L	8ee\L
!	!	!	!LO:N:acc=#	!
.	.	.	8an/	8ff\
!	!	!	!LO:N:acc=#	!
.	.	.	8bn/	8gg\
!	!	!	!	!LO:TX:t=P:problem=kreska pseudotaktowa
.	6\	.	8cc/J	8aa\J
*	*	*custos:d	*custos:dd	*
!	!	!LO:PB:g=original	!LO:LB:g=original	!
=78-	=78-	=78-	=78-	=78-
!LO:TX:t=P:problem=mixed beam	!	!	!	!
8D/L	.	8r	8dd\L	4ff\
8d\	.	8d\L	8ffny\	.
8c\	.	8c\	8eeny\	4r
8d\J	.	8d\J	8ff\J	.
4B-\	6	4B-\	4dd\	8r
.	.	.	.	8gg\L
!	!	!LO:TX:t=P:problem=kreska pseudotaktowa	!LO:TX:t=P:problem=kreska pseudotaktowa	!
4A\	.	4A\	4cc\	8ff\
!	!	!	!	!LO:TX:t=P:problem=kreska pseudotaktowa
.	.	.	.	8gg\J
*	*	*	*	*custos:ee-
!	!	!	!	!LO:LB:g=original
=79-	=79-	=79-	=79-	=79-
4G\	-6r	4G\	4b-y/	8ee-X\L
.	.	.	.	8dd\J
4F\	.	4F\	4a/	[4dd\
!LO:TX:t=P:problem=kreska pseudotaktowa	!	!	!	!
2E-X\	7	4.E-X\	4.g/	8dd\L]
.	.	.	.	8cc\J
.	.	.	.	4cc\
!	!	!LO:TX:t=P:problem=kreska pseudotaktowa	!LO:TX:t=P:problem=kreska pseudotaktowa	!
.	6	8E-\	8g/	.
=80-	=80-	=80-	=80-	=80-
8D/L	.	8D/L	8fny/L	2dd\
8C/	.	8C/	8f/J	.
8BB-/	.	8BB-/	4f#X/	.
8AA/J	6\	8AA/J	.	.
4GG/	.	4GG/	8g/L	4.dd\
.	.	.	8a/	.
!LO:TX:t=P:problem=kreska pseudotaktowa	!	!LO:TX:t=P:problem=kreska pseudotaktowa	!	!
4AA/	4	4AA/	8f#/	.
!	!	!	!LO:TX:t=P:problem=kreska pseudotaktowa	!
.	3	.	8eny/J	8cc#X\
=81-	=81-	=81-	=81-	=81-
!	!	!LO:TX:t=P:problem=mixed beam	!LO:SIC:v:o=4fny/	!
4D/	.	8DD/L	4f#/	4dd\
.	.	8D/	.	.
8C/L	.	8C/	4r	4r
8D/J	.	8D/J	.	.
4BB-/	.	4BB-/	8r	8r
.	.	.	8dd\L	8ff\
!LO:TX:t=P:problem=kreska pseudotaktowa	!	!	!	!
4AA/	6\	4AA/	8cc\	4ff#X\
!	!	!	!LO:TX:t=P:problem=kreska pseudotaktowa	!
.	.	.	8dd\J	.
=82-	=82-	=82-	=82-	=82-
!LO:TX:t=P:problem=mixed beam	!	!LO:TX:t=P:problem=mixed beam	!	!
8GG/L	.	8GG/L	4b-/	4gg\
8G\	.	8G\	.	.
8F\	.	8F\	4a/	4r
8G\J	.	8G\J	.	.
4E-X\	6	4E-X\	8g/L	8r
.	.	.	8b-/J	8gg\L
!	!	!	!LO:N:acc=#	!
!	!	!LO:TX:t=P:problem=kreska pseudotaktowa	!LO:TX:t=P:problem=kreska pseudotaktowa	!
4D\	6\	4D/	4bn/	8ffny\
.	.	.	.	8gg\J
=83-	=83-	=83-	=83-	=83-
8C/L	.	8C/L	2cc\	8ee-X\L
8BB-/	.	8BB-/	.	8ee-\J
!	!	!	!	!LO:N:acc=#
8AA/	6\	8AA/	.	4een\
8GG/J	.	8GG/J	.	.
!LO:TX:t=P:problem=mixed beam	!	!LO:TX:t=P:problem=mixed beam	!	!
8FF/L	.	8FF/L	8r	[2ff\
8F\	.	8F\	8a/L	.
!LO:TX:t=P:problem:♭ above	!	!	!	!
8E-X\	-	8E-X\	8g/	.
!	!	!LO:TX:t=P:problem=kreska pseudotaktowa	!LO:TX:t=P:problem=kreska pseudotaktowa	!
8F\J	.	8F\J	8a/J	.
=84-	=84-	=84-	=84-	=84-
2D/	6	4.D/	8b-y/L	4ff\]
.	.	.	8f/J	.
.	.	.	2b-/	4ff\
.	.	8D/	.	.
*	*	*custos:E	*	*
!	!	!LO:LB:g=original	!	!
4E-X\	6 5	4E-X\	.	4.ccny\
!LO:TX:t=P:problem=kreska pseudotaktowa	!	!LO:TX:t=P:problem=kreska pseudotaktowa	!LO:TX:t=P:problem=kreska pseudotaktowa	!
4F\	.	4F\	4a/	.
.	.	.	.	8cc\
=85-	=85-	=85-	=85-	=85-
!	!	!LO:TX:t=P:problem=mixed beam	!	!
4.BB-/	.	8B-\L	4b-/	4dd\
.	.	8BB-/	.	.
.	.	8BB-/	4r	4r
8BB-/	.	8BB-/J	.	.
!	!	!	!LO:TX:b:i:t=Verte Irreſtò.	!
8C\L	.	8C/L	2r	2r
8D\	.	8D/	.	.
!LO:TX:t=P:problem:♭ above	!	!	!	!
8E-X\	-	8E-X/	.	.
!LO:TX:t=P:problem=kreska pseudotaktowa	!	!LO:TX:t=P:problem=kreska pseudotaktowa	!	!
8F\J	.	8F/J	.	.
*	*	*	*custos:f	*
!	!	!	!LO:PB:g=original	!
=86-	=86-	=86-	=86-	=86-
8D/L	.	8D/L	8r	1r
8BB-/	.	8BB-/	8f/L	.
8AA/	6	8AA/	8f/	.
8BB-/J	.	8BB-/J	8f/J	.
2GG/	7	4.GG/	8g/L	.
.	.	.	8a/	.
.	.	.	8b-/	.
!	!	!LO:TX:t=P:problem=kreska pseudotaktowa	!LO:TX:t=P:problem=kreska pseudotaktowa	!
.	6	8GG/	8cc/J	.
*	*	*	*	*custos:b
!	!	!	!	!LO:PB:g=original
=87-	=87-	=87-	=87-	=87-
4FF/	.	4FF/	8a/L	2r
.	.	.	8f/	.
8GG/L	-6r	8GG/L	8e-X/	.
8AA/J	.	8AA/J	8f/J	.
4BB-/	.	4BB-/	4d/	8r
.	.	.	.	8b-/L
!LO:TX:t=P:problem=kreska pseudotaktowa	!	!LO:TX:t=P:problem=kreska pseudotaktowa	!	!
4GG/	.	4GG/	8r	8b-/
!	!	!	!LO:TX:t=P:problem=kreska pseudotaktowa	!LO:TX:t=P:problem=kreska pseudotaktowa
.	.	.	8b-/	8b-/J
=88-	=88-	=88-	=88-	=88-
4EE-X/	6 5	4EE-X/	4b-/	8cc\L
.	.	.	.	8dd\
4FF/	.	4FF/	4a/	8ee-X\
.	.	.	.	8ff\J
!	!	!	!	!LO:TX:t=P:problem=mixed beam
2BB-/	5	4.BB-/	4.b-/	8dd\L
.	.	.	.	8g/
.	.	.	.	8f/
!	!	!LO:TX:t=P:problem=kreska pseudotaktowa	!	!LO:TX:t=P:problem=kreska pseudotaktowa
.	6	8BB-/	8b-/	8g/J
=89-	=89-	=89-	=89-	=89-
4C/	.	4C/	8b-/L	4e/
.	.	.	[8a/J	.
8D/L	.	8D/L	4a/]	4f/
8C/J	.	8C/J	.	.
4BB-/	6 5	8BB-/L	4.g/	4.f/
.	.	8GG/J	.	.
4C/	.	8C/L	.	.
!	!	!LO:TX:t=P:problem=kreska pseudotaktowa	!	!LO:TX:t=P:problem=kreska pseudotaktowa
.	.	8CC/J	8g/	8e/
*	*	*custos:FF	*	*
!LO:LB:g=original	!	!LO:LB:g=original	!	!
=90-	=90-	=90-	=90-	=90-
!	!	!LO:TX:t=P:problem=mixed beam	!	!
4F\	.	8FF/L	8a/L	4f/
.	.	8F\	8a/	.
8Eny\L	.	8Eny\	8g/	4r
8F\J	.	8F\J	8a/J	.
8D/L	.	8D/L	8f/L	8r
8BB-/	.	8BB-/	8f/J	8dd\L
!	!	!	!LO:TX:t=P:problem=kreska pseudotaktowa	!
8AA/	6	8AA/	4f#X/	8cc\
!	!	!LO:TX:t=P:problem=kreska pseudotaktowa	!	!LO:TX:t=P:problem=kreska pseudotaktowa
8BB-/J	.	8BB-/J	.	8dd\J
=91-	=91-	=91-	=91-	=91-
!	!	!	!	!LO:TX:t=P:problem=mixed beam
4GG/	.	8GG/L	4g/	8b-/L
.	.	8GG/	.	8bb-\
8FF/L	.	8FF/	4r	8aa\
8GG/J	.	8GG/J	.	8bb-\J
!	!	!	!	!LO:TX:t=P:problem=kreska pseudotaktowa
4.DD/	6	4.DD/	8r	2ff\
.	.	.	8b-/L	.
.	.	.	8b-/	.
!LO:TX:t=P:problem=kreska pseudotaktowa	!	!LO:TX:t=P:problem=kreska pseudotaktowa	!LO:TX:t=P:problem=kreska pseudotaktowa	!
8D\	.	8D/	8b-/J	.
=92-	=92-	=92-	=92-	=92-
8E-X\L	6	8E-X\L	8cc\L	2r
8F\	6	8F\	8dd\	.
8G\	6	8G\	8ee-X\	.
8A\J	6	8A\J	8ff\J	.
*	*	*	*custos:dd	*
!	!	!	!LO:LB:g=original	!
4B-\	.	4B-\	8dd\L	8r
.	.	.	8dd\	8ff\L
8A\L	.	8A\L	8cc\	8ff\
!LO:TX:t=P:problem=kreska pseudotaktowa	!	!LO:TX:t=P:problem=kreska pseudotaktowa	!LO:TX:t=P:problem=kreska pseudotaktowa	!LO:TX:t=P:problem=kreska pseudotaktowa
8B-\J	.	8B-\J	8dd\J	8ff\J
=93-	=93-	=93-	=93-	=93-
4G\	.	4G\	4b-/	8gg\L
.	.	.	.	8aa\
4Eny\	6 5	4Eny\	4g/	8bb-\
.	.	.	.	8ccc\J
*	*	*	*	*custos:aa
!	!	!	!	!LO:LB:g=original
2F\	.	4.F\	4.a/	8aa\L
.	.	.	.	8ff\
.	.	.	.	8ee-X\
!	!	!	!	!LO:TX:t=P:problem=kreska pseudotaktowa
.	.	8F\	8a/	8ff\J
=94-	=94-	=94-	=94-	=94-
!	!	!	!	!LO:TX:b:i:t=Adagio.
4BB-/	.	4BB-/	2b-/	4dd\
4D/	6	4D/	.	4ff\
4E-X\	.	4E-X\	2b-/	4gg\
!LO:N:acc=#	!	!LO:N:acc=#	!	!
4En\	6 -5	4En\	.	4gg\
=95-	=95-	=95-	=95-	=95-
2F\	.	2F\	2a/	2ff\
2G\	6\ #	2G\	2b-/	2eeny\
*	*	*custos:F	*	*
!	!	!LO:LB:g=original	!	!
=96-	=96-	=96-	=96-	=96-
2F\	8 3	2F\	4a/	4ff\
.	7 4	.	2b-/	4dd\
2FF/	7 4	2FF/	.	2ee-X\
.	6 3	.	4a/	.
=97-	=97-	=97-	=97-	=97-
1BB-	.	1BB-	1b-	1dd
=98||	=98||	=98||	=98||	=98||
*M3/4	*	*	*	*M3/4
!LO:TX:b:t=aria	!	!	!	!
!LO:TX:a:t=solo.	!	!LO:TX:a:t=Aria tacet	!LO:TX:a:t=Aria tacet	!LO:TX:b:i:t=Aria Solo.
2.BB-/	.	2.ryy	2.ryy	4.ff\
.	.	.	.	8ee\
.	.	.	.	4dd\
=99-	=99-	=99-	=99-	=99-
4BB-/	.	2.ryy	2.ryy	4ff\
4E-X\	.	.	.	4.gg\
4C/	-	.	.	.
!	!	!	!	!LO:TX:t=P:problem=kreska pseudotaktowa
.	.	.	.	8aa\
=100-	=100-	=100-	=100-	=100-
!LO:TX:t=P:problem=kreska pseudotaktowa	!	!	!	!
2.BB-/	.	2.ryy	2.ryy	2.bb-\
=101-	=101-	=101-	=101-	=101-
4AA/	6	2.ryy	2.ryy	4ccc\
4BB-/	.	.	.	4ddd\
!LO:N:acc=#	!	!	!	!LO:TX:t=P:problem=kreska pseudotaktowa
4BBn/	6 -5	.	.	4ff\
=102-	=102-	=102-	=102-	=102-
!LO:TX:t=P:problem=kreska pseudotaktowa	!	!	!	!
2.C/	.	2.ryy	2.ryy	4.ee\
.	.	.	.	8dd\
!	!	!	!	!LO:TX:t=P:problem=kreska pseudotaktowa
.	.	.	.	4cc\
=103-	=103-	=103-	=103-	=103-
8AA/L	6	2.ryy	2.ryy	8aa\L
8BB-y/J	.	.	.	8gg\J
4.C/	4	.	.	4.gg\
!LO:TX:t=P:problem=kreska pseudotaktowa	!	!	!	!
8C/	3	.	.	8ff\
*	*	*	*	*custos:ff
!	!	!	!	!LO:LB:g=original
=104-	=104-	=104-	=104-	=104-
4F\	.	2.ryy	2.ryy	4ff\
4G\	.	.	.	4r
!	!	!	!	!LO:TX:t=P:problem=kreska pseudotaktowa
4E-X\	.	.	.	4r
=105-	=105-	=105-	=105-	=105-
4D\	.	2.ryy	2.ryy	4ff\
4E-X\	.	.	.	4gg\
!LO:TX:t=P:problem=kreska pseudotaktowa	!	!	!	!
4C/	6	.	.	4ee-X\
=106-	=106-	=106-	=106-	=106-
4.BB-/	.	2.ryy	2.ryy	4.dd\
8C/	.	.	.	8ee-\
4D/	.	.	.	4ff\
=107-	=107-	=107-	=107-	=107-
4D/	.	2.ryy	2.ryy	4bb-X\
4E-X\	.	.	.	4ccc\
!LO:TX:t=P:problem=kreska pseudotaktowa	!	!	!	!LO:TX:t=P:problem=kreska pseudotaktowa
4F\	.	.	.	4aa\
=108-	=108-	=108-	=108-	=108-
2BB-/	.	2.ryy	2.ryy	4.bb-\
.	.	.	.	8ff\
4E-X\	.	.	.	4gg\
=109-	=109-	=109-	=109-	=109-
4E-\	6 5	2.ryy	2.ryy	4cc\
4F\	4	.	.	4.cc\
!LO:TX:t=P:problem=kreska pseudotaktowa	!	!	!	!
4FF/	3	.	.	.
.	.	.	.	8b-/
=110-	=110-	=110-	=110-	=110-
!	!	!	!	!LO:TX:t=P:problem=kreska pseudotaktowa
2.BB-/	.	2.ryy	2.ryy	2.b-/
=111-	=111-	=111-	=111-	=111-
2.BB-/	.	2.ryy	2.ryy	8ff\L
.	.	.	.	8gg\
.	.	.	.	8ff\
.	.	.	.	8ee-X\
.	.	.	.	8dd\
!	!	!	!	!LO:TX:t=P:problem=kreska pseudotaktowa
.	.	.	.	8b-\J
=112-	=112-	=112-	=112-	=112-
4BB-/	.	2.ryy	2.ryy	8ff\L
.	.	.	.	8dd\J
4E-X\	.	.	.	8gg\L
.	.	.	.	8ee-X\J
4C/	6	.	.	8aa\L
!	!	!	!	!LO:TX:t=P:problem=kreska pseudotaktowa
.	.	.	.	8ff\J
=113-	=113-	=113-	=113-	=113-
2.BB-/	.	2.ryy	2.ryy	8bb-\L
.	.	.	.	8ff\
.	.	.	.	8gg\
.	.	.	.	8aa\
.	.	.	.	8bb-\
!	!	!	!	!LO:TX:t=P:problem=kreska pseudotaktowa
.	.	.	.	8ff\J
*custos:AA	*	*	*	*
!LO:LB:g=original	!	!	!	!
=114-	=114-	=114-	=114-	=114-
4AA/	6	2.ryy	2.ryy	8ccc\L
.	.	.	.	8aa\
4BB-/	.	.	.	8ddd\
.	.	.	.	8ff\
!LO:N:acc=#	!	!	!	!
4BBn/	6	.	.	8gg\
!	!	!	!	!LO:TX:t=P:problem=kreska pseudotaktowa
.	.	.	.	8ff\J
*	*	*	*	*custos:ee
!	!	!	!	!LO:LB:g=original
=115-	=115-	=115-	=115-	=115-
2C/	.	2.ryy	2.ryy	8eeny\L
.	.	.	.	8dd\
.	.	.	.	8ee\
.	.	.	.	8cc\
!LO:TX:t=P:problem=kreska pseudotaktowa	!	!	!	!
4BB-y/	.	.	.	8dd\
!	!	!	!	!LO:TX:t=P:problem=kreska pseudotaktowa
.	.	.	.	8ee\J
=116-	=116-	=116-	=116-	=116-
2AA/	6	2.ryy	2.ryy	8ff\L
.	.	.	.	8ee\
.	.	.	.	8ff\
.	.	.	.	8dd\
4GG/	6	.	.	8gg\
!	!	!	!	!LO:TX:t=P:problem=kreska pseudotaktowa
.	.	.	.	8ee\J
=117-	=117-	=117-	=117-	=117-
2FF/	.	2.ryy	2.ryy	8aa\L
.	.	.	.	8gg\
.	.	.	.	8aa\
.	.	.	.	8ff\
4GG/	.	.	.	8bb-\
!	!	!	!	!LO:TX:t=P:problem=kreska pseudotaktowa
.	.	.	.	8gg\J
=118-	=118-	=118-	=118-	=118-
!LO:TX:t=P:problem=kreska pseudotaktowa	!	!	!	!
2.AA/	6	2.ryy	2.ryy	8ccc\L
.	.	.	.	8bb-\
.	.	.	.	8ccc\
.	.	.	.	8ff\
.	.	.	.	8ee\
!	!	!	!	!LO:TX:t=P:problem=kreska pseudotaktowa
.	.	.	.	8ff\J
=119-	=119-	=119-	=119-	=119-
2.BB-/	.	2.ryy	2.ryy	8dd\L
.	.	.	.	8cc\
.	.	.	.	8b-\
.	.	.	.	8a\J
.	.	.	.	8g/L
!	!	!	!	!LO:TX:t=P:problem=kreska pseudotaktowa
.	.	.	.	8f/J
=120-	=120-	=120-	=120-	=120-
4BB-/	.	2.ryy	2.ryy	8b-\L
.	.	.	.	8dd\J
!LO:TX:t=P:problem=kreska pseudotaktowa	!	!	!	!
2C/	4	.	.	4.g/
!	!	!	!	!LO:TX:t=P:problem=kreska pseudotaktowa
.	3	.	.	8f/
=121-	=121-	=121-	=121-	=121-
4F\	.	2.ryy	2.ryy	4f/
4G\	.	.	.	4r
!	!	!	!	!LO:TX:t=P:problem=kreska pseudotaktowa
4E-X\	.	.	.	4r
=122-	=122-	=122-	=122-	=122-
!	!	!	!	!LO:TX:t=P:problem=mixed beam
4D/	.	2.ryy	2.ryy	8ff\L
.	.	.	.	8dd\
4E-X\	6	.	.	8gg\
.	.	.	.	8b-/J
4C/	.	.	.	8ee-X\L
.	.	.	.	8cc\J
*	*	*	*	*custos:dd
!	!	!	!	!LO:LB:g=original
=123-	=123-	=123-	=123-	=123-
!LO:TX:t=P:problem=kreska pseudotaktowa	!	!	!	!
2.BB-/	.	2.ryy	2.ryy	8dd\L
.	.	.	.	8cc\
.	.	.	.	8dd\
.	.	.	.	8ee-X\
.	.	.	.	8ff\
!	!	!	!	!LO:TX:t=P:problem=kreska pseudotaktowa
.	.	.	.	8dd\J
=124-	=124-	=124-	=124-	=124-
!	!	!	!	!LO:TX:t=P:problem=mixed beam
2E-X\	.	2.ryy	2.ryy	8gg\L
.	.	.	.	8ff\
.	.	.	.	8gg\
.	.	.	.	8aa\
4D/	6	.	.	8bb-\
!	!	!	!	!LO:TX:t=P:problem=kreska pseudotaktowa
.	.	.	.	8b-/J
=125-	=125-	=125-	=125-	=125-
4E-X\	.	2.ryy	2.ryy	8ee-X\L
.	.	.	.	8gg\J
4F\	.	.	.	4.cc\
4FF/	.	.	.	.
.	.	.	.	8b-/
=126-	=126-	=126-	=126-	=126-
!LO:TX:t=P:problem=kreska pseudotaktowa	!	!	!	!LO:TX:t=P:problem=kreska pseudotaktowa
2.BB-/	.	2.ryy	2.ryy	2.b-/
=127-	=127-	=127-	=127-	=127-
4B-\	.	2.ryy	2.ryy	4dd\
4F\	.	.	.	4a/
4G\	.	.	.	4b-/
=128-	=128-	=128-	=128-	=128-
4D/	.	2.ryy	2.ryy	4f/
4E-X\	.	.	.	4g/
!	!	!	!	!LO:TX:t=P:problem=kreska pseudotaktowa
4C/	6	.	.	4e-X/
=129-	=129-	=129-	=129-	=129-
!LO:TX:t=P:problem=kreska pseudotaktowa	!	!	!	!
2.BB-/	.	2.ryy	2.ryy	4.d/
.	.	.	.	8eny/L
.	.	.	.	8f/
.	.	.	.	8g/J
=130-	=130-	=130-	=130-	=130-
2C/	.	2.ryy	2.ryy	4e/
.	.	.	.	4c/
4AA/	.	.	.	8f/L
!	!	!	!	!LO:TX:t=P:problem=kreska pseudotaktowa
.	.	.	.	8g/J
=131-	=131-	=131-	=131-	=131-
4AA/	.	2.ryy	2.ryy	8a/L
.	.	.	.	8b-/J
4C/	.	.	.	4.g/
!LO:TX:t=P:problem=kreska pseudotaktowa	!	!	!	!
4CC/	.	.	.	.
!	!	!	!	!LO:TX:t=P:problem=kreska pseudotaktowa
.	.	.	.	8f/
=132-	=132-	=132-	=132-	=132-
4FF/	.	2.ryy	2.ryy	2f/
4.AA/	.	.	.	.
.	.	.	.	4r
8BB-/	.	.	.	.
*	*	*	*	*custos:e
!	!	!	!	!LO:LB:g=original
=133-	=133-	=133-	=133-	=133-
!LO:TX:t=P:problem=kreska pseudotaktowa	!	!	!	!
2.C/	.	2.ryy	2.ryy	4e/
.	.	.	.	4.g/
.	.	.	.	8a/
=134-	=134-	=134-	=134-	=134-
4GG/	.	2.ryy	2.ryy	2b-/
4.BB-/	.	.	.	.
!	!	!	!	!LO:TX:t=P:problem=kreska pseudotaktowa
.	.	.	.	4r
8C/	.	.	.	.
=135-	=135-	=135-	=135-	=135-
4D/	.	2.ryy	2.ryy	4a/
!LO:TX:t=P:problem=kreska pseudotaktowa	!	!	!	!
2C/	.	.	.	4.b-/
.	.	.	.	8cc\
=136-	=136-	=136-	=136-	=136-
4BB-/	.	2.ryy	2.ryy	2dd\
4.D\	.	.	.	.
!	!	!	!	!LO:TX:t=P:problem=kreska pseudotaktowa
.	.	.	.	4r
8E-X\	.	.	.	.
=137-	=137-	=137-	=137-	=137-
4F\	.	2.ryy	2.ryy	4cc\
2E-X\	.	.	.	4.dd\
.	.	.	.	8ee-X\
=138-	=138-	=138-	=138-	=138-
!	!	!	!	!LO:TX:t=P:problem=mixed beam
4D/	.	2.ryy	2.ryy	8ff\L
.	.	.	.	8f/J
!LO:TX:t=P:problem=kreska pseudotaktowa	!	!	!	!
2C/	.	.	.	4.g/
.	.	.	.	8a/
=139-	=139-	=139-	=139-	=139-
4.BB-/	.	2.ryy	2.ryy	2.b-/
8AA/L	.	.	.	.
8GG/	.	.	.	.
8FF/J	.	.	.	.
=140-	=140-	=140-	=140-	=140-
4EE-X/	.	2.ryy	2.ryy	4gg\
2FF/	.	.	.	4.cc\
.	.	.	.	8b-/
=141-	=141-	=141-	=141-	=141-
!LO:TX:t=P:problem=kreska pseudotaktowa	!	!	!	!LO:TX:t=P:problem=kreska pseudotaktowa
2.BB-/	.	2.ryy	2.ryy	2.b-/
*custos:B	*	*	*	*
!LO:LB:g=original	!	!	!	!
=142-	=142-	=142-	=142-	=142-
4B-\	.	2.ryy	2.ryy	8dd\L
.	.	.	.	8ee-X\
4F\	.	.	.	8a\
.	.	.	.	8cc\
4G\	.	.	.	8b-\
.	.	.	.	8cc\J
*	*	*	*	*custos:f
!	!	!	!	!LO:LB:g=original
=143-	=143-	=143-	=143-	=143-
4D\	.	2.ryy	2.ryy	8f/L
.	.	.	.	8a/
4E-X\	.	.	.	8g/
.	.	.	.	8f/
!LO:TX:t=P:problem=kreska pseudotaktowa	!	!	!	!LO:N:acc=#
4C/	.	.	.	8en/
!	!	!	!	!LO:TX:t=P:problem=kreska pseudotaktowa
.	.	.	.	8f/J
=144-	=144-	=144-	=144-	=144-
2.BB-/	.	2.ryy	2.ryy	8d/L
.	.	.	.	8e/
.	.	.	.	8d/
.	.	.	.	8e/
.	.	.	.	8f/
!	!	!	!	!LO:TX:t=P:problem=kreska pseudotaktowa
.	.	.	.	8g/J
=145-	=145-	=145-	=145-	=145-
2C/	.	2.ryy	2.ryy	8e/L
.	.	.	.	8d/
.	.	.	.	8e/
.	.	.	.	8c/
4AA/	.	.	.	8f/
!	!	!	!	!LO:TX:t=P:problem=kreska pseudotaktowa
.	.	.	.	8g/J
=146-	=146-	=146-	=146-	=146-
4AA/	.	2.ryy	2.ryy	8a/L
.	.	.	.	8b-/
4C/	.	.	.	8g/
.	.	.	.	8f/
!LO:TX:t=P:problem=kreska pseudotaktowa	!	!	!	!
4CC/	.	.	.	8g/
!	!	!	!	!LO:TX:t=P:problem=kreska pseudotaktowa
.	.	.	.	8a/J
=147-	=147-	=147-	=147-	=147-
8FF/L	.	2.ryy	2.ryy	4f/
8GG/	.	.	.	.
8AA/	.	.	.	4r
8BB-/J	.	.	.	.
!	!	!	!	!LO:TX:t=P:problem=kreska pseudotaktowa
8AA/L	.	.	.	4r
!LO:TX:t=P:problem=kreska pseudotaktowa	!	!	!	!
8BB-/J	.	.	.	.
=148-	=148-	=148-	=148-	=148-
2.C/	.	2.ryy	2.ryy	8e/L
.	.	.	.	8f/
.	.	.	.	8g/
.	.	.	.	8a/
.	.	.	.	8g/
!	!	!	!	!LO:TX:t=P:problem=kreska pseudotaktowa
.	.	.	.	8a/J
=149-	=149-	=149-	=149-	=149-
8GG/L	.	2.ryy	2.ryy	4b-/
8AA/	.	.	.	.
8BB-/	.	.	.	4r
8C/J	.	.	.	.
!	!	!	!	!LO:TX:t=P:problem=kreska pseudotaktowa
8BB-/L	.	.	.	4r
!LO:TX:t=P:problem=kreska pseudotaktowa	!	!	!	!
8C/J	.	.	.	.
=150-	=150-	=150-	=150-	=150-
4D/	.	2.ryy	2.ryy	8r
.	.	.	.	8a/L
2C/	.	.	.	8b-/
.	.	.	.	8cc/
.	.	.	.	8b-/
!	!	!	!	!LO:TX:t=P:problem=kreska pseudotaktowa
.	.	.	.	8cc/J
*	*	*	*	*custos:dd
!	!	!	!	!LO:LB:g=original
=151-	=151-	=151-	=151-	=151-
4BB-/	.	2.ryy	2.ryy	4dd\
8D\L	.	.	.	4r
8E-X\	.	.	.	.
!	!	!	!	!LO:TX:t=P:problem=kreska pseudotaktowa
8D\	.	.	.	4r
!LO:TX:t=P:problem=kreska pseudotaktowa	!	!	!	!
8E-X\J	.	.	.	.
=152-	=152-	=152-	=152-	=152-
4F\	.	2.ryy	2.ryy	8r
.	.	.	.	8cc\L
2E-X\	.	.	.	8dd\
.	.	.	.	8ee-X\
.	.	.	.	8dd\
!	!	!	!	!LO:TX:t=P:problem=kreska pseudotaktowa
.	.	.	.	8ee-\J
=153-	=153-	=153-	=153-	=153-
!	!	!	!	!LO:TX:t=P:problem=mixed beam
4D/	.	2.ryy	2.ryy	8ff\L
.	.	.	.	8f/
2C/	.	.	.	8g/
.	.	.	.	8a/
.	.	.	.	8g/
!	!	!	!	!LO:TX:t=P:problem=kreska pseudotaktowa
.	.	.	.	8a/J
=154-	=154-	=154-	=154-	=154-
4BB-/	.	2.ryy	2.ryy	8b-\L
.	.	.	.	8dd\
4C/	.	.	.	8ee-X\
.	.	.	.	8ff\
!LO:TX:t=P:problem=kreska pseudotaktowa	!	!	!	!
4D/	.	.	.	8ee-X\
!	!	!	!	!LO:TX:t=P:problem=kreska pseudotaktowa
.	.	.	.	8ff\J
=155-	=155-	=155-	=155-	=155-
2.E-X\	.	2.ryy	2.ryy	8gg\L
.	.	.	.	8ee-X\
.	.	.	.	8gg\
.	.	.	.	8aa\
.	.	.	.	8gg\
!	!	!	!	!LO:TX:t=P:problem=kreska pseudotaktowa
.	.	.	.	8aa\J
=156-	=156-	=156-	=156-	=156-
4D\	6	2.ryy	2.ryy	8bb-\L
.	.	.	.	8ff\
4E-X\	.	.	.	8ee-X\
.	.	.	.	8dd\
4F\	.	.	.	8cc\
!	!	!	!	!LO:TX:t=P:problem=kreska pseudotaktowa
.	.	.	.	8dd\J
=157-	=157-	=157-	=157-	=157-
2.BB-/	.	2.ryy	2.ryy	2.b-/
=158||	=158||	=158||	=158||	=158||
*	*	*M3/4	*M3/4	*
!LO:TX:b:t=aria a 3.	!	!LO:TX:b:i:t=Aria à 3.	!LO:TX:b:i:t=Aria à 3	!LO:TX:b:i:t=Aria à 3
2.BB-/	.	2.BB-/	4.dd\	4.ff\
!	!	!	!	!LO:SIC:v:o=8ee\
.	.	.	8cc\	8ee-\
.	.	.	4b-/	4dd\
*	*	*	*	*custos:ff
!	!	!	!	!LO:LB:g=original
=159-	=159-	=159-	=159-	=159-
4BB-/	.	4BB-/	4dd\	4ff\
4E-X\	.	4E-X\	4.ee-X\	4.gg\
!	!	!LO:TX:t=P:problem=kreska pseudotaktowa	!	!
4C/	6	4C/	.	.
!	!	!	!	!LO:TX:t=P:problem=kreska pseudotaktowa
.	.	.	8ee-\	8aa\
*	*	*	*custos:dd	*
!	!	!	!LO:LB:g=original	!
=160-	=160-	=160-	=160-	=160-
!LO:TX:t=P:problem=kreska pseudotaktowa	!	!	!	!
2.BB-/	.	2.BB-/	2.dd\	2.bb-\
=161-	=161-	=161-	=161-	=161-
4AA/	6	4AA/	2ff\	4ccc\
4BB-/	.	4BB-/	.	4ddd\
!LO:N:acc=#	!	!LO:N:acc=#	!	!LO:TX:t=P:problem=kreska pseudotaktowa
4BBn/	6 -5	4BBn/	4ff\	4gg\
=162-	=162-	=162-	=162-	=162-
2.C/	.	2.C/	4.eeny\	4.gg\
.	.	.	8dd\	8ff\
!	!	!	!LO:TX:t=P:problem=kreska pseudotaktowa	!
.	.	.	4cc\	4ee\
=163-	=163-	=163-	=163-	=163-
8AA/L	.	8AA/L	4ff\	8aa\L
8BB-y/J	.	8BB-y/J	.	8gg\J
4.C/	.	4.C/	4.ff\	4.gg\
!LO:TX:t=P:problem=kreska pseudotaktowa	!	!LO:TX:t=P:problem=kreska pseudotaktowa	!	!LO:TX:t=P:problem=kreska pseudotaktowa
8C/	.	8C/	8ee\	8gg\
=164-	=164-	=164-	=164-	=164-
4F\	.	4F\	4ff\	4aa\
4G\	.	4G\	4r	4r
!	!	!	!LO:TX:t=P:problem=kreska pseudotaktowa	!
4E-X\	.	4E-X\	4r	4r
*	*	*custos:D	*	*
!	!	!LO:LB:g=original	!	!
=165-	=165-	=165-	=165-	=165-
4D/	.	4D/	4ff\	2.r
4E-X\	.	4E-X\	4gg\	.
4C/	.	4C/	4ee-X\	.
=166-	=166-	=166-	=166-	=166-
4BB-/	.	4BB-/	4dd\	4bb-\
4EE-X/	.	4EE-X/	4ee-X\	4ccc\
!	!	!LO:TX:t=P:problem=kreska pseudotaktowa	!LO:TX:t=P:problem=kreska pseudotaktowa	!
4FF/	.	4FF/	4cc\	4aa\
*custos:BB	*	*	*	*
!LO:LB:g=original	!	!	!	!
=167-	=167-	=167-	=167-	=167-
4.BB-/	.	4.BB-X/	4.dd\	2.bb-\
!	!	!	!LO:SIC:v:o=8eeny\	!
8C/	.	8C/	8ee-\	.
4D/	.	4D/	4ff\	.
=168-	=168-	=168-	=168-	=168-
4E-X\	.	4E-X\	4gg\	4bb-\
4F\	.	4F\	4.cc\	4.bb-\
4FF/	.	4FF/	.	.
!	!	!	!	!LO:TX:t=P:problem=kreska pseudotaktowa
.	.	.	8cc\	8aa\
=169-	=169-	=169-	=169-	=169-
2.BB-/	.	2.BB-/	2.dd\	2.bb-\
=170||	=170||	=170||	=170||	=170||
4B-\	.	4B-\	4dd\	4.ff\
4F\	.	4F\	4a/	.
!	!	!	!	!LO:SIC:v:o=8ee\
.	.	.	.	8ee-\
4G\	.	4G\	4b-/	4dd\
*	*	*	*custos:f	*custos:dd
!	!	!	!LO:LB:g=original	!LO:LB:g=original
=171-	=171-	=171-	=171-	=171-
4D/	.	4D/	4f/	4dd\
4E-X\	.	4E-X\	4g/	4b-/
!LO:TX:t=P:problem=kreska pseudotaktowa	!	!LO:TX:t=P:problem=kreska pseudotaktowa	!	!
4C/	.	4C/	4e-X/	4cc\
=172-	=172-	=172-	=172-	=172-
4.BB-/	.	4.BB-/	4.d/	4dd\
!	!	!	!	!LO:TX:t=P:problem=kreska pseudotaktowa
.	.	.	.	2b-/
8C/	.	8C/	8eny/	.
4D/	6	4D/	4f/	.
=173-	=173-	=173-	=173-	=173-
2C/	7	2C/	2e/	4.b-/
.	.	.	.	8cc\
4D/	.	4D/	4f/	4a/
=174-	=174-	=174-	=174-	=174-
4BB-/	.	4BB-/	2f/	2g/
4GG/	.	4GG/	.	.
!LO:TX:t=P:problem=kreska pseudotaktowa	!	!LO:TX:t=P:problem=kreska pseudotaktowa	!LO:TX:t=P:problem=kreska pseudotaktowa	!LO:TX:t=P:problem=kreska pseudotaktowa
4C/	.	4C/	4e/	4g/
*	*	*custos:FF	*	*
!	!	!LO:LB:g=original	!	!
=175-	=175-	=175-	=175-	=175-
4FF/	.	4FF/	4f/	4a/
4.AA/	.	4.AA/	4r	4r
!	!	!	!LO:TX:t=P:problem=kreska pseudotaktowa	!LO:TX:t=P:problem=kreska pseudotaktowa
.	.	.	4r	4r
8BB-/	.	8BB-/	.	.
=176-	=176-	=176-	=176-	=176-
2.C/	.	2.C/	4c/	4e/
.	.	.	4.e/	4.g/
.	.	.	8f#X/	8a/
=177-	=177-	=177-	=177-	=177-
4GG/	.	4GG/	2.g/	2.b-/
4.BB-/	.	4.BB-/	.	.
!LO:TX:t=P:problem=kreska pseudotaktowa	!	!	!	!
8C/	.	8C/	.	.
=178-	=178-	=178-	=178-	=178-
4D/	.	4D/	4fny/	4a/
2C/	.	2C/	4.g/	4.b-/
!	!	!	!	!LO:TX:t=P:problem=kreska pseudotaktowa
.	.	.	8a/	8cc\
=179-	=179-	=179-	=179-	=179-
!	!	!	!LO:TX:t=P:problem=kreska pseudotaktowa	!
4BB-/	.	4BB-/	2.b-/	2.dd\
4.D\	.	4.D/	.	.
8Eny\	.	8Eny\	.	.
=180-	=180-	=180-	=180-	=180-
4F\	.	4F\	4a/	4cc\
2E-X\	.	2E-X\	4.b-/	4.dd\
!	!	!	!	!LO:TX:t=P:problem=kreska pseudotaktowa
.	.	.	8cc\	8ee-X\
=181-	=181-	=181-	=181-	=181-
4D/	.	4D/	4f/	4ff\
2C/	.	2C/	4.g/	2ee-X\
!	!	!	!LO:TX:t=P:problem=kreska pseudotaktowa	!
.	.	.	8a/	.
*	*	*	*	*custos:dd
!	!	!	!	!LO:LB:g=original
=182-	=182-	=182-	=182-	=182-
4BB-/	.	4BB-/	4b-/	4dd\
4F\	.	4F\	4.b-/	4.cc\
4FF/	.	4FF/	.	.
.	.	.	8a/	8cc\
*	*	*	*custos:b	*
!	!	!	!LO:LB:g=original	!
=183-	=183-	=183-	=183-	=183-
2.BB-/	.	2.BB-/	2.b-/	2.dd\
==	==	==	==	==
*-	*-	*-	*-	*-
!!!system-decoration: [(str)]<klav>
!!!ENC: Arkadiusz Malec
!!!END: 2022-04-24
!!!ENC: Andrzej Kubiczek
!!!END: 2022-11-24
